public/ellipse 20.svg

<svg xmlns="http://www.w3.org/2000/svg" viewBox="0 0 9.4 12.9"><defs><style>.cls-1{fill:#fff;}</style></defs><title>ellipse 20</title><g id="Layer_2" data-name="Layer 2"><g id="Layer_1-2" data-name="Layer 1"><path class="cls-1" d="M5.94,12.23c-1.81,0-3.8-1.9-4.74-4.53C.1,4.64.78,1.48,2.68.8A2.34,2.34,0,0,1,3.47.67c1.8,0,3.8,1.9,4.74,4.53a8,8,0,0,1,.35,4.49A3.15,3.15,0,0,1,6.72,12.1a2.28,2.28,0,0,1-.78.13Z"/><path d="M3.47,1.33c1.28,0,3.16,1.44,4.11,4.09a7.39,7.39,0,0,1,.33,4.11A2.61,2.61,0,0,1,6.5,11.47a1.54,1.54,0,0,1-.56.1c-1.29,0-3.16-1.44-4.11-4.09-1.06-3-.28-5.57,1.08-6.05a1.69,1.69,0,0,1,.56-.1M3.47,0a3.15,3.15,0,0,0-1,.17C.18,1-.67,4.46.57,7.93c1.06,3,3.31,5,5.37,5a2.94,2.94,0,0,0,1-.17C9.23,11.91,10.07,8.44,8.83,5,7.77,2,5.53,0,3.47,0Z"/></g></g></svg>

<?xml version="1.0" encoding="UTF-8" standalone="no"?>
<svg
   xmlns:dc="http://purl.org/dc/elements/1.1/"
   xmlns:cc="http://creativecommons.org/ns#"
   xmlns:rdf="http://www.w3.org/1999/02/22-rdf-syntax-ns#"
   xmlns:svg="http://www.w3.org/2000/svg"
   xmlns="http://www.w3.org/2000/svg"
   xmlns:sodipodi="http://sodipodi.sourceforge.net/DTD/sodipodi-0.dtd"
   xmlns:inkscape="http://www.inkscape.org/namespaces/inkscape"
   viewBox="0 0 16.000001 16"
   version="1.1"
   id="svg4020"
   sodipodi:docname="ellipse 20.svg"
   width="16"
   height="16"
   inkscape:version="0.92.3 (d244b95, 2018-08-02)">
  <metadata
     id="metadata4024">
    <rdf:RDF>
      <cc:Work
         rdf:about="">
        <dc:format>image/svg+xml</dc:format>
        <dc:type
           rdf:resource="http://purl.org/dc/dcmitype/StillImage" />
        <dc:title>ellipse 20</dc:title>
      </cc:Work>
    </rdf:RDF>
  </metadata>
  <sodipodi:namedview
     pagecolor="#ffffff"
     bordercolor="#666666"
     borderopacity="1"
     objecttolerance="10"
     gridtolerance="10"
     guidetolerance="10"
     inkscape:pageopacity="0"
     inkscape:pageshadow="2"
     inkscape:window-width="1920"
     inkscape:window-height="1055"
     id="namedview4022"
     showgrid="true"
     inkscape:zoom="67.674421"
     inkscape:cx="4.6999998"
     inkscape:cy="11.842954"
     inkscape:window-x="0"
     inkscape:window-y="25"
     inkscape:window-maximized="1"
     inkscape:current-layer="svg4020">
    <inkscape:grid
       type="xygrid"
       id="grid4026" />
  </sodipodi:namedview>
  <defs
     id="defs4010">
    <style
       id="style4008">.cls-1{fill:#fff;}</style>
  </defs>
  <title
     id="title4012">ellipse 20</title>
  <g
     id="Layer_2"
     data-name="Layer 2"
     transform="matrix(1.5014006,0,0,1.0881297,0.9626314,1)">
    <g
       id="Layer_1-2"
       data-name="Layer 1">
      <path
         class="cls-1"
         d="M 5.94,12.23 C 4.13,12.23 2.14,10.33 1.2,7.7 0.1,4.64 0.78,1.48 2.68,0.8 A 2.34,2.34 0 0 1 3.47,0.67 c 1.8,0 3.8,1.9 4.74,4.53 A 8,8 0 0 1 8.56,9.69 3.15,3.15 0 0 1 6.72,12.1 2.28,2.28 0 0 1 5.94,12.23 Z"
         id="path4014"
         inkscape:connector-curvature="0"
         style="fill:#ffffff" />
      <path
         d="m 3.47,1.33 c 1.28,0 3.16,1.44 4.11,4.09 A 7.39,7.39 0 0 1 7.91,9.53 2.61,2.61 0 0 1 6.5,11.47 1.54,1.54 0 0 1 5.94,11.57 C 4.65,11.57 2.78,10.13 1.83,7.48 0.77,4.48 1.55,1.91 2.91,1.43 A 1.69,1.69 0 0 1 3.47,1.33 M 3.47,0 a 3.15,3.15 0 0 0 -1,0.17 C 0.18,1 -0.67,4.46 0.57,7.93 c 1.06,3 3.31,5 5.37,5 a 2.94,2.94 0 0 0 1,-0.17 C 9.23,11.91 10.07,8.44 8.83,5 7.77,2 5.53,0 3.47,0 Z"
         id="path4016"
         inkscape:connector-curvature="0" />
    </g>
  </g>
</svg>
